X: 3575
T: Big Willie's Wedding
R: hornpipe
M: 4/4
K: Dmajor
|:(3GFE|DAFA DAFA|BGEd cAFA|fdAf gece|dfed (3cBA (3GFE|
DAFA DAFD|A,CEF GECE|DFAc Bdce|d2 {e}dc d2:|
|:ed|cdeg fdcd|fgaf bged|cBAB cdef|gbed (3cBA (3GFE|
DFAc BGEd|cAFA fdAf gecA ^GAce|d2{e}dc d2:|

